X:1
T:The Safest Way
T:The Safest Way
T:Charles Hutchinson Gabriel
T:Charles Hutchinson Gabriel, 1917
T:Public Domain Courtesy of the Cyber Hymnal™
T:Public Domain Courtesy of the Cyber Hymnal™
C:Charles Hutchinson Gabriel
Z:Public Domain
Z:Courtesy of the Cyber Hymnal™
%%score ( 1 2 ) ( 3 4 )
L:1/8
M:6/4
K:G
V:1 treble 
V:2 treble 
V:3 bass 
V:4 bass 
V:1
 D2 | [DB]3 [^C^A] [DB]2 [E^c]4 [DB]2 | [DB]6 [B,G]4 [DG][DF] | [CE]3 [DF] [EG]2 (A2 G2) [CE]2 | %4
w: 1.~The|ways of the world may|tempt you With their|glit- ter and glint * of|
w: 2.~The|pal- ace of sin and|plea- sure May ap-|peal to your heart’s * de-|
w: 3.~Her|breast was your first warm|pil- low, When she|taught you to lisp * His|
 [B,D]6- [B,D]4 D[DE] | [DF]3 [EF] [^DF]2 [FA]4 [GB]2 | [FA]6 [Fd]4 [DF][DF] | %7
w: gold, * And its|prom- is- es may al-|lure you As you|
w: sire, * For its|mu- sic is strange- ly|thrill- ing, Like the|
w: name; * Don’t dis-|hon- or that bless- èd|mem- ory With the|
 [^CA]2 [CE]2 [CF]2 (G2 F2) [CE]2 | A6- [=CA]4 D2 | [DB]3 [Dc] [E^c]2 [Gd]4 [Ec]2 | %10
w: watch its mir- age * un-|fold; False pro-|phets, the thieves of Sa-|
w: strains of a gold- * en|lyre. But, stop!|Ere you cross its thresh-|
w: teach- ing of mod- * ern|shame. Keep on|in the dear old path-|
 [Gd]6 [GB]4 [FA]2 | [EG]3 [EF] [EG]2 [EA]4 [E^A]2 | ([EB-]6 [^DB]4) [DB]2 | %13
w: tan, Like vam-|pires en- tice their prey;|But * stick|
w: old, Look back|to your child- hood’s day.|And * stick|
w: way! Let o-|thers do as they may,|But * stick|
 [Fd]3 [FA] [FA]2 [=Fd]4 [FG]2 | [Ec]6- [Ec]4 [Ec]2 | [DB]3 [DB] [DB]2 [DB]2 [DA]4 | %16
w: to your mo- ther’s God:|Her * way|is the saf- est way.|
w: to your mo- ther’s God:|Her * way|is the saf- est way.|
w: to your mo- ther’s God:|Her * way|is the saf- est way.|
 [DG]6- [DG]4 |] %17
w: |
w: |
w: |
V:2
 D2 | x12 | x12 | x6 E4 x2 | x10 D x | x12 | x12 | x6 ^C4 x2 | (D4 ^C2 D2) x4 | x12 | x12 | x12 | %12
 x12 | x12 | x12 | x12 | x10 |] %17
V:3
 D,2 | [G,,G,]3 [G,,G,] [G,,G,]2 [G,,G,]4 [G,,G,]2 | [G,,G,]6 [G,,D,]4 [B,,G,][B,,G,] | %3
 [C,G,]3 [C,G,] [C,G,]2 [C,C]4 [C,G,]2 | [G,,G,]6- [G,,G,]4 [D,F,][D,G,] | %5
 [D,A,]3 [D,A,] [D,B,]2 [D,D]4 [D,D]2 | [D,D]6 [D,A,]4 [D,A,][D,A,] | %7
 [A,,A,]2 [A,,G,]2 [A,,F,]2 (E,2 A,2) [G,A,]2 | ([F,A,]4 [E,G,]2 [D,F,]4) [D,F,]2 | %9
 G,3 [G,A,] [G,^A,]2 [G,B,]4 [G,A,]2 | [G,B,]6 [G,D]4 [D,C]2 | %11
 [E,B,]3 [E,B,] [E,B,]2 [C,C]4 [C,G,]2 | ([B,,-G,]6 [B,,F,]4) [B,,F,]2 | %13
 [A,,C]3 [A,,C] [A,,C]2 [G,,B,]4 [G,B,]2 | [C,G,]6- [C,G,]4 [C,G,]2 | %15
 [D,G,]3 [D,G,] [D,G,]2 [D,G,]2 [D,C]4 | [G,,B,]6- [G,,B,]4 |] %17
V:4
 D,2 | x12 | x12 | x12 | x12 | x12 | x12 | x6 A,,4 x2 | x12 | G,3 x9 | x12 | x12 | x12 | x12 | %14
 x12 | x12 | x10 |] %17

